Numix-Light/16/status/indicator-keyboard-Pl-2.svg

<?xml version="1.0" encoding="UTF-8" standalone="no"?>
<svg
   xmlns:dc="http://purl.org/dc/elements/1.1/"
   xmlns:cc="http://creativecommons.org/ns#"
   xmlns:rdf="http://www.w3.org/1999/02/22-rdf-syntax-ns#"
   xmlns:svg="http://www.w3.org/2000/svg"
   xmlns="http://www.w3.org/2000/svg"
   xmlns:sodipodi="http://sodipodi.sourceforge.net/DTD/sodipodi-0.dtd"
   xmlns:inkscape="http://www.inkscape.org/namespaces/inkscape"
   viewBox="0 0 16 16"
   id="svg2"
   version="1.1"
   inkscape:version="0.91 r13725"
   sodipodi:docname="indicator-keyboard-Pl-2.svg">
  <metadata
     id="metadata14">
    <rdf:RDF>
      <cc:Work
         rdf:about="">
        <dc:format>image/svg+xml</dc:format>
        <dc:type
           rdf:resource="http://purl.org/dc/dcmitype/StillImage" />
      </cc:Work>
    </rdf:RDF>
  </metadata>
  <defs
     id="defs12" />
  <sodipodi:namedview
     pagecolor="#ffffff"
     bordercolor="#666666"
     borderopacity="1"
     objecttolerance="10"
     gridtolerance="10"
     guidetolerance="10"
     inkscape:pageopacity="0"
     inkscape:pageshadow="2"
     inkscape:window-width="640"
     inkscape:window-height="480"
     id="namedview10"
     showgrid="false"
     inkscape:zoom="14.75"
     inkscape:cx="8"
     inkscape:cy="8"
     inkscape:window-x="65"
     inkscape:window-y="24"
     inkscape:window-maximized="0"
     inkscape:current-layer="svg2" />
  <path
     style="fill:#353535;fill-opacity:1"
     d="M 1.5996094 0 C 0.71320937 2.9605947e-16 0 0.71320937 0 1.5996094 L 0 14.400391 C 2.9605947e-16 15.286791 0.71320937 16 1.5996094 16 L 14.400391 16 C 15.286791 16 16 15.286791 16 14.400391 L 16 1.5996094 C 16 0.71320937 15.286791 0 14.400391 0 L 1.5996094 0 z M 9.0527344 4.1113281 L 9.0527344 9.9628906 C 9.0527344 10.106891 9.0638906 10.2225 9.0878906 10.3125 C 9.1178906 10.3965 9.1608438 10.465531 9.2148438 10.519531 C 9.2688438 10.567531 9.337875 10.604906 9.421875 10.628906 C 9.511875 10.652906 9.6163281 10.673406 9.7363281 10.691406 L 9.65625 11.177734 C 9.45825 11.171734 9.2828125 11.143703 9.1328125 11.095703 C 8.9888125 11.053703 8.867625 10.988438 8.765625 10.898438 C 8.669625 10.802437 8.5930625 10.681109 8.5390625 10.537109 C 8.4910625 10.387109 8.4667969 10.202469 8.4667969 9.9804688 L 8.4667969 4.2207031 L 9.0527344 4.1113281 z M 4.7617188 4.8046875 C 5.6437188 4.8046875 6.3004219 4.9725937 6.7324219 5.3085938 C 7.1644219 5.6445937 7.3808594 6.1222344 7.3808594 6.7402344 C 7.3808594 7.0942344 7.3174063 7.3964375 7.1914062 7.6484375 C 7.0654063 7.8944375 6.8863437 8.0959531 6.6523438 8.2519531 C 6.4183438 8.4019531 6.1291094 8.5139375 5.7871094 8.5859375 C 5.4511094 8.6519375 5.0705313 8.6835937 4.6445312 8.6835938 L 3.7988281 8.6835938 L 3.7988281 11.095703 L 3.1875 11.095703 L 3.1875 4.9765625 C 3.4035 4.9165625 3.6553594 4.8736094 3.9433594 4.8496094 C 4.2373594 4.8196094 4.5097188 4.8046875 4.7617188 4.8046875 z M 4.7890625 5.3359375 C 4.5610625 5.3359375 4.365125 5.3452813 4.203125 5.3632812 C 4.047125 5.3752812 3.9128281 5.3864375 3.7988281 5.3984375 L 3.7988281 8.1523438 L 4.5722656 8.1523438 C 4.9022656 8.1523438 5.1988906 8.1356094 5.4628906 8.0996094 C 5.7328906 8.0576094 5.9624375 7.9848125 6.1484375 7.8828125 C 6.3404375 7.7748125 6.4858906 7.6274062 6.5878906 7.4414062 C 6.6898906 7.2554062 6.7421875 7.0184688 6.7421875 6.7304688 C 6.7421875 6.4544687 6.6843125 6.226875 6.5703125 6.046875 C 6.4623125 5.866875 6.3149062 5.7250469 6.1289062 5.6230469 C 5.9489063 5.5150469 5.7418125 5.4404375 5.5078125 5.3984375 C 5.2738125 5.3564375 5.0350625 5.3359375 4.7890625 5.3359375 z M 11.486328 8.7539062 C 11.880228 8.7539062 12.1761 8.851875 12.375 9.046875 C 12.5739 9.237975 12.673828 9.5044563 12.673828 9.8476562 C 12.673828 9.9997563 12.646397 10.14475 12.591797 10.28125 C 12.537197 10.41385 12.462741 10.543169 12.369141 10.667969 C 12.279441 10.792769 12.175594 10.912297 12.058594 11.029297 C 11.941594 11.146297 11.822072 11.263859 11.701172 11.380859 C 11.599772 11.478359 11.501797 11.578288 11.404297 11.679688 C 11.310697 11.777188 11.224484 11.877116 11.146484 11.978516 C 11.072384 12.076016 11.011644 12.172031 10.964844 12.269531 C 10.921944 12.363131 10.900391 12.457181 10.900391 12.550781 L 10.900391 12.5625 L 12.8125 12.5625 L 12.8125 12.896484 L 10.478516 12.896484 C 10.478516 12.888684 10.47659 12.874969 10.472656 12.855469 L 10.472656 12.755859 C 10.472656 12.572559 10.505966 12.402094 10.572266 12.246094 C 10.638566 12.086194 10.722819 11.937275 10.824219 11.796875 C 10.929519 11.656475 11.045122 11.525197 11.169922 11.404297 C 11.298622 11.283397 11.422063 11.165834 11.539062 11.052734 C 11.636562 10.959134 11.7267 10.869003 11.8125 10.783203 C 11.9022 10.693503 11.980575 10.603366 12.046875 10.509766 C 12.113175 10.416166 12.166078 10.316237 12.205078 10.210938 C 12.244078 10.105638 12.263672 9.9900344 12.263672 9.8652344 C 12.263672 9.5922344 12.189216 9.39825 12.041016 9.28125 C 11.896716 9.16035 11.714488 9.0996094 11.492188 9.0996094 C 11.367387 9.0996094 11.255703 9.1152844 11.158203 9.1464844 C 11.060703 9.1776844 10.974491 9.2149125 10.900391 9.2578125 C 10.830191 9.2968125 10.76945 9.3379594 10.71875 9.3808594 C 10.66805 9.4237594 10.630822 9.4570688 10.607422 9.4804688 L 10.408203 9.2167969 C 10.431603 9.1894969 10.47275 9.1503094 10.53125 9.0996094 C 10.59365 9.0450094 10.670066 8.9921062 10.759766 8.9414062 C 10.853366 8.8907063 10.961131 8.8476 11.082031 8.8125 C 11.202931 8.7735 11.338128 8.7539063 11.486328 8.7539062 z "
     id="path4" />
</svg>

<svg xmlns="http://www.w3.org/2000/svg" viewBox="0 0 16 16">
 <path d="m 1.6 0 c -0.886 0 -1.6 0.713 -1.6 1.6 l 0 12.801 c 0 0.886 0.713 1.6 1.6 1.6 l 12.801 0 c 0.886 0 1.6 -0.713 1.6 -1.6 l 0 -12.801 c 0 -0.886 -0.713 -1.6 -1.6 -1.6 l -12.801 0 z m 7.453 4.111 l 0 5.852 c 0 0.144 0.011 0.26 0.035 0.35 c 0.03 0.084 0.073 0.153 0.127 0.207 c 0.054 0.048 0.123 0.085 0.207 0.109 c 0.09 0.024 0.194 0.044 0.314 0.063 l -0.08 0.486 c -0.198 -0.006 -0.373 -0.034 -0.523 -0.082 c -0.144 -0.042 -0.265 -0.107 -0.367 -0.197 c -0.096 -0.096 -0.173 -0.217 -0.227 -0.361 c -0.048 -0.15 -0.072 -0.335 -0.072 -0.557 l 0 -5.76 l 0.586 -0.109 z m -4.291 0.693 c 0.882 0 1.539 0.168 1.971 0.504 c 0.432 0.336 0.648 0.814 0.648 1.432 c 0 0.354 -0.063 0.656 -0.189 0.908 c -0.126 0.246 -0.305 0.448 -0.539 0.604 c -0.234 0.15 -0.523 0.262 -0.865 0.334 c -0.336 0.066 -0.717 0.098 -1.143 0.098 l -0.846 0 l 0 2.412 l -0.611 0 l 0 -6.119 c 0.216 -0.06 0.468 -0.103 0.756 -0.127 c 0.294 -0.03 0.566 -0.045 0.818 -0.045 z m 0.027 0.531 c -0.228 0 -0.424 0.009 -0.586 0.027 c -0.156 0.012 -0.29 0.023 -0.404 0.035 l 0 2.754 l 0.773 0 c 0.33 0 0.627 -0.017 0.891 -0.053 c 0.27 -0.042 0.5 -0.115 0.686 -0.217 c 0.192 -0.108 0.337 -0.255 0.439 -0.441 c 0.102 -0.186 0.154 -0.423 0.154 -0.711 c 0 -0.276 -0.058 -0.504 -0.172 -0.684 c -0.108 -0.18 -0.255 -0.322 -0.441 -0.424 c -0.18 -0.108 -0.387 -0.183 -0.621 -0.225 c -0.234 -0.042 -0.473 -0.063 -0.719 -0.063 z m 6.697 3.418 c 0.394 0 0.69 0.098 0.889 0.293 c 0.199 0.191 0.299 0.458 0.299 0.801 c 0 0.152 -0.027 0.297 -0.082 0.434 c -0.055 0.133 -0.129 0.262 -0.223 0.387 c -0.09 0.125 -0.194 0.244 -0.311 0.361 c -0.117 0.117 -0.237 0.235 -0.357 0.352 c -0.101 0.098 -0.199 0.197 -0.297 0.299 c -0.094 0.098 -0.18 0.197 -0.258 0.299 c -0.074 0.097 -0.135 0.194 -0.182 0.291 c -0.043 0.094 -0.064 0.188 -0.064 0.281 l 0 0.012 l 1.912 0 l 0 0.334 l -2.334 0 c 0 -0.008 -0.002 -0.022 -0.006 -0.041 l 0 -0.1 c 0 -0.183 0.033 -0.354 0.1 -0.51 c 0.066 -0.16 0.151 -0.309 0.252 -0.449 c 0.105 -0.14 0.221 -0.272 0.346 -0.393 c 0.129 -0.121 0.252 -0.238 0.369 -0.352 c 0.098 -0.094 0.188 -0.184 0.273 -0.27 c 0.09 -0.09 0.168 -0.18 0.234 -0.273 c 0.066 -0.094 0.119 -0.194 0.158 -0.299 c 0.039 -0.105 0.059 -0.221 0.059 -0.346 c 0 -0.273 -0.074 -0.467 -0.223 -0.584 c -0.144 -0.121 -0.327 -0.182 -0.549 -0.182 c -0.125 0 -0.236 0.016 -0.334 0.047 c -0.098 0.031 -0.184 0.068 -0.258 0.111 c -0.07 0.039 -0.131 0.08 -0.182 0.123 c -0.051 0.043 -0.088 0.076 -0.111 0.1 l -0.199 -0.264 c 0.023 -0.027 0.065 -0.066 0.123 -0.117 c 0.062 -0.055 0.139 -0.108 0.229 -0.158 c 0.094 -0.051 0.201 -0.094 0.322 -0.129 c 0.121 -0.039 0.256 -0.059 0.404 -0.059 z" style="fill:#353535;fill-opacity:1"/>
</svg>
